X: 1
T: En Passant la Rivi\`ere
C: Traditional
R: bourree 2
%P: Bourr\ee \`a Six
%Q: 1/4=138
S: Qu\'ebec City workshop, from Betsy Hooper
M: 2/4
L: 1/8
K: D
|:\
"D"D>E FG | "D"A3 A | "G"B>c dB | "A"A>G FE |\
"D"D>E FG | "D"A3 A | "G"B>c dB | "A"A4 :|
|:\
"D"F>D FA | "A7"G>F EF | "A7"G>F GB | "D"A>G FA |\
"D"F>D FA | "A7"G>F EF | "A7"GA Bc | "D"d4 :|
